camera-control.svg

<svg fill="currentColor" viewBox="0 0 24 24"><path d="M9 12c0-.81.3-1.5.89-2.11C10.5 9.3 11.19 9 12 9s1.5.3 2.11.89c.59.61.89 1.3.89 2.11s-.3 1.5-.89 2.11c-.61.59-1.3.89-2.11.89s-1.5-.3-2.11-.89C9.3 13.5 9 12.81 9 12M5.53 8.44l1.78 1.78L5.53 12l1.78 1.78-1.78 1.78L2 12zm2.91 10.03 1.78-1.78L12 18.47l1.78-1.78 1.78 1.78L12 22zm10.03-2.91-1.78-1.78L18.47 12l-1.78-1.78 1.78-1.78L22 12zM15.56 5.53l-1.78 1.78L12 5.53l-1.78 1.78-1.78-1.78L12 2z"/></svg>

<svg  viewBox="0 0 24 24" fill="currentColor"><path  d="M9,12C9,11.19 9.3,10.5 9.89,9.89C10.5,9.3 11.19,9 12,9C12.81,9 13.5,9.3 14.11,9.89C14.7,10.5 15,11.19 15,12C15,12.81 14.7,13.5 14.11,14.11C13.5,14.7 12.81,15 12,15C11.19,15 10.5,14.7 9.89,14.11C9.3,13.5 9,12.81 9,12M5.53,8.44L7.31,10.22L5.53,12L7.31,13.78L5.53,15.56L2,12L5.53,8.44M8.44,18.47L10.22,16.69L12,18.47L13.78,16.69L15.56,18.47L12,22L8.44,18.47M18.47,15.56L16.69,13.78L18.47,12L16.69,10.22L18.47,8.44L22,12L18.47,15.56M15.56,5.53L13.78,7.31L12,5.53L10.22,7.31L8.44,5.53L12,2L15.56,5.53Z"/></svg>
